svg/aws-ec2-auto-scaling.svg

<?xml version="1.0" encoding="UTF-8"?>
<svg xmlns="http://www.w3.org/2000/svg" xmlns:xlink="http://www.w3.org/1999/xlink" width="32" height="32" viewBox="0 0 32 32">
<path fill-rule="nonzero" fill="rgb(92.941177%, 44.313726%, 0%)" fill-opacity="1" d="M 0.203125 0.203125 L 31.796875 0.203125 L 31.796875 31.796875 L 0.203125 31.796875 Z M 0.203125 0.203125 "/>
<path fill-rule="nonzero" fill="rgb(100%, 100%, 100%)" fill-opacity="1" d="M 28.539062 15.457031 L 23.96875 15.457031 L 26.152344 13.273438 L 25.339844 12.46875 L 22.152344 15.660156 C 22.042969 15.765625 21.980469 15.910156 21.980469 16.0625 C 21.980469 16.214844 22.042969 16.359375 22.152344 16.464844 L 25.339844 19.65625 L 26.152344 18.851562 L 23.898438 16.597656 L 28.539062 16.597656 Z M 6.65625 12.46875 L 5.847656 13.273438 L 8.03125 15.457031 L 3.460938 15.457031 L 3.460938 16.597656 L 8.101562 16.597656 L 5.847656 18.851562 L 6.65625 19.65625 L 9.847656 16.464844 C 9.953125 16.359375 10.015625 16.214844 10.015625 16.0625 C 10.015625 15.910156 9.953125 15.765625 9.847656 15.660156 Z M 13.058594 18.96875 L 18.941406 18.96875 L 18.941406 13.085938 L 13.058594 13.085938 Z M 19.957031 12.449219 L 21.015625 12.449219 L 21.015625 13.589844 L 20.082031 13.589844 L 20.082031 14.453125 L 21.015625 14.453125 L 21.015625 15.59375 L 20.082031 15.59375 L 20.082031 16.460938 L 21.015625 16.460938 L 21.015625 17.605469 L 20.082031 17.605469 L 20.082031 18.46875 L 21.015625 18.46875 L 21.015625 19.609375 L 19.957031 19.609375 C 19.867188 19.765625 19.738281 19.894531 19.582031 19.984375 L 19.582031 21.042969 L 18.4375 21.042969 L 18.4375 20.113281 L 17.574219 20.113281 L 17.574219 21.042969 L 16.433594 21.042969 L 16.433594 20.113281 L 15.566406 20.113281 L 15.566406 21.042969 L 14.425781 21.042969 L 14.425781 20.113281 L 13.5625 20.113281 L 13.5625 21.042969 L 12.417969 21.042969 L 12.417969 19.984375 C 12.261719 19.894531 12.128906 19.765625 12.042969 19.609375 L 10.984375 19.609375 L 10.984375 18.46875 L 11.917969 18.46875 L 11.917969 17.605469 L 10.984375 17.605469 L 10.984375 16.460938 L 11.917969 16.460938 L 11.917969 15.59375 L 10.984375 15.59375 L 10.984375 14.453125 L 11.917969 14.453125 L 11.917969 13.589844 L 10.984375 13.589844 L 10.984375 12.449219 L 12.042969 12.449219 C 12.128906 12.289062 12.257812 12.15625 12.417969 12.066406 L 12.417969 11.011719 L 13.5625 11.011719 L 13.5625 11.945312 L 14.425781 11.945312 L 14.425781 11.011719 L 15.566406 11.011719 L 15.566406 11.945312 L 16.433594 11.945312 L 16.433594 11.011719 L 17.574219 11.011719 L 17.574219 11.945312 L 18.4375 11.945312 L 18.4375 11.011719 L 19.582031 11.011719 L 19.582031 12.066406 C 19.738281 12.15625 19.867188 12.289062 19.957031 12.449219 M 16.570312 26.6875 L 16.570312 22.046875 L 15.429688 22.046875 L 15.429688 26.691406 L 13.210938 24.46875 L 12.402344 25.28125 L 15.59375 28.472656 C 15.703125 28.578125 15.847656 28.636719 16 28.636719 C 16.148438 28.636719 16.292969 28.578125 16.402344 28.472656 L 19.597656 25.28125 L 18.785156 24.46875 Z M 13.210938 7.585938 L 12.402344 6.777344 L 15.59375 3.585938 C 15.816406 3.363281 16.179688 3.363281 16.402344 3.585938 L 19.597656 6.777344 L 18.785156 7.585938 L 16.570312 5.367188 L 16.570312 10.007812 L 15.429688 10.007812 L 15.429688 5.367188 Z M 13.210938 7.585938 "/>
</svg>

<svg role="img" viewBox="0 0 32 32" xmlns="http://www.w3.org/2000/svg"><path d="M.203.203h31.594v31.594H.203Zm0 0" fill="rgb(92.941177%, 44.313726%, 0%)"/><path d="M28.54 15.457h-4.571l2.183-2.184-.812-.804-3.188 3.191a.56.56 0 0 0 0 .805l3.188 3.191.812-.804-2.254-2.254h4.641ZM6.655 12.469l-.808.804 2.183 2.184H3.46v1.14H8.1l-2.253 2.255.808.804 3.192-3.191a.57.57 0 0 0 .168-.402.57.57 0 0 0-.168-.403Zm6.403 6.5h5.882v-5.883h-5.88Zm6.898-6.52h1.059v1.14h-.934v.864h.934v1.14h-.934v.868h.934v1.144h-.934v.864h.934v1.14h-1.059c-.09.157-.219.286-.375.375v1.059h-1.145v-.93h-.863v.93h-1.14v-.93h-.868v.93h-1.14v-.93h-.864v.93h-1.144v-1.059a1 1 0 0 1-.375-.375h-1.059v-1.14h.934v-.864h-.934v-1.144h.934v-.867h-.934v-1.14h.934v-.864h-.934v-1.14h1.059a.96.96 0 0 1 .375-.384v-1.054h1.145v.933h.863v-.933h1.14v.933h.868v-.933h1.14v.933h.863v-.933h1.145v1.054c.156.09.285.223.375.383M16.57 26.688v-4.641h-1.14v4.644l-2.22-2.222-.808.812 3.192 3.192a.583.583 0 0 0 .808 0l3.196-3.192-.813-.812ZM13.21 7.586l-.808-.809 3.192-3.191a.573.573 0 0 1 .808 0l3.196 3.191-.813.809-2.215-2.219v4.64h-1.14v-4.64Zm0 0" fill="rgb(100%, 100%, 100%)"/></svg>
